; generated by PrusaSlicer 2.2.0+win64 on 2020-10-11 at 00:57:30 UTC

; 

; external perimeters extrusion width = 0.68mm
; perimeters extrusion width = 0.68mm
; infill extrusion width = 0.68mm
; solid infill extrusion width = 0.68mm
; top infill extrusion width = 0.60mm
; first layer extrusion width = 0.65mm

M73 P0 R43
M73 Q0 S43
M201 X1000 Y1000 Z200 E5000 ; sets maximum accelerations, mm/sec^2
M203 X200 Y200 Z12 E120 ; sets maximum feedrates, mm/sec
M204 P1250 R1250 T1250 ; sets acceleration (P, T) and retract acceleration (R), mm/sec^2
M205 X8.00 Y8.00 Z0.40 E4.50 ; sets the jerk limits, mm/sec
M205 S0 T0 ; sets the minimum extruding and travel feed rate, mm/sec
M107
M862.3 P "MK3S" ; printer model check
M862.1 P0.6 ; nozzle diameter check
M115 U3.9.1 ; tell printer latest fw version
G90 ; use absolute coordinates
M83 ; extruder relative mode
M104 S215 ; set extruder temp
M140 S60 ; set bed temp
M190 S60 ; wait for bed temp
M109 S215 ; wait for extruder temp
G28 W ; home all without mesh bed level
G80 ; mesh bed leveling
G1 Y-3.0 F1000.0 ; go outside print area
G92 E0.0
G1 X60.0 E9.0 F1000.0 ; intro line
M73 Q0 S43
M73 P0 R43
G1 X100.0 E12.5 F1000.0 ; intro line
G92 E0.0
M221 S95
G21 ; set units to millimeters
G90 ; use absolute coordinates
M83 ; use relative distances for extrusion
M900 K0.04 ; Filament gcode LA 1.5
M900 K18 ; Filament gcode LA 1.0
;BEFORE_LAYER_CHANGE
G92 E0.0
;0.2


G1 E-0.80000 F2100.00000
G1 Z0.600 F10800.000
;AFTER_LAYER_CHANGE
;0.2
G1 X90.235 Y76.470
G1 Z0.200
G1 E0.80000 F2100.00000
M204 S1000
G1 F1200.000
G1 X91.677 Y74.798 E0.11143
G1 X93.199 Y73.200 E0.11143
G1 X94.798 Y71.677 E0.11143
G1 X96.469 Y70.236 E0.11143
G1 X98.210 Y68.878 E0.11143
G1 X100.014 Y67.607 E0.11143
G1 X101.879 Y66.426 E0.11143
G1 X103.800 Y65.338 E0.11143
G1 X105.772 Y64.345 E0.11143
G1 X107.790 Y63.451 E0.11143
G1 X109.849 Y62.656 E0.11143
G1 X111.945 Y61.964 E0.11143
G1 X114.072 Y61.375 E0.11143
G1 X116.226 Y60.891 E0.11143
G1 X118.401 Y60.514 E0.11143
G1 X120.592 Y60.244 E0.11143
G1 X122.793 Y60.081 E0.11143
G1 X125.004 Y60.027 E0.11163
G1 X127.207 Y60.081 E0.11122
G1 X129.408 Y60.244 E0.11143
G1 X131.599 Y60.514 E0.11143
G1 X133.774 Y60.891 E0.11143
G1 X135.927 Y61.375 E0.11143
G1 X138.055 Y61.964 E0.11143
G1 X140.151 Y62.656 E0.11143
G1 X142.210 Y63.451 E0.11143
G1 X144.228 Y64.345 E0.11143
G1 X146.200 Y65.337 E0.11143
G1 X148.120 Y66.425 E0.11143
G1 X149.985 Y67.606 E0.11143
G1 X151.790 Y68.877 E0.11143
G1 X153.530 Y70.235 E0.11143
G1 X155.202 Y71.677 E0.11143
G1 X156.800 Y73.199 E0.11143
G1 X158.323 Y74.798 E0.11143
G1 X159.764 Y76.469 E0.11143
G1 X161.122 Y78.210 E0.11143
G1 X162.393 Y80.014 E0.11143
G1 X163.574 Y81.879 E0.11143
G1 X164.662 Y83.800 E0.11143
G1 X165.655 Y85.772 E0.11143
G1 X166.549 Y87.790 E0.11143
G1 X167.344 Y89.849 E0.11143
G1 X168.036 Y91.945 E0.11143
G1 X168.625 Y94.072 E0.11143
G1 X169.109 Y96.226 E0.11143
G1 X169.486 Y98.401 E0.11143
G1 X169.756 Y100.592 E0.11143
G1 X169.919 Y102.793 E0.11143
G1 X169.973 Y105.000 E0.11143
G1 X169.919 Y107.207 E0.11143
G1 X169.756 Y109.408 E0.11143
G1 X169.486 Y111.599 E0.11143
G1 X169.109 Y113.774 E0.11143
G1 X168.625 Y115.927 E0.11143
G1 X168.036 Y118.055 E0.11143
G1 X167.344 Y120.151 E0.11143
G1 X166.549 Y122.210 E0.11143
G1 X165.655 Y124.228 E0.11143
G1 X164.663 Y126.200 E0.11143
G1 X163.575 Y128.120 E0.11143
G1 X162.394 Y129.985 E0.11143
G1 X161.123 Y131.790 E0.11143
G1 X159.765 Y133.530 E0.11143
G1 X158.323 Y135.202 E0.11143
G1 X156.801 Y136.800 E0.11143
G1 X155.202 Y138.323 E0.11143
G1 X153.531 Y139.764 E0.11143
G1 X151.790 Y141.122 E0.11143
G1 X149.986 Y142.393 E0.11143
G1 X148.121 Y143.574 E0.11143
G1 X146.200 Y144.662 E0.11143
G1 X144.228 Y145.655 E0.11143
G1 X142.210 Y146.549 E0.11143
G1 X140.151 Y147.344 E0.11143
G1 X138.055 Y148.036 E0.11143
G1 X135.928 Y148.625 E0.11143
G1 X133.774 Y149.109 E0.11143
G1 X131.599 Y149.486 E0.11143
G1 X129.408 Y149.756 E0.11143
G1 X127.207 Y149.919 E0.11143
G1 X125.000 Y149.973 E0.11143
G1 X122.793 Y149.919 E0.11143
G1 X120.592 Y149.756 E0.11143
G1 X118.401 Y149.486 E0.11143
G1 X116.226 Y149.109 E0.11143
G1 X114.073 Y148.625 E0.11143
G1 X111.945 Y148.036 E0.11143
G1 X109.849 Y147.344 E0.11143
G1 X107.790 Y146.549 E0.11143
G1 X105.772 Y145.655 E0.11143
G1 X103.800 Y144.663 E0.11143
G1 X101.880 Y143.575 E0.11143
G1 X100.015 Y142.394 E0.11143
G1 X98.210 Y141.123 E0.11143
G1 X96.470 Y139.765 E0.11143
G1 X94.798 Y138.323 E0.11143
G1 X93.200 Y136.801 E0.11143
G1 X91.677 Y135.202 E0.11143
G1 X90.236 Y133.531 E0.11143
G1 X88.878 Y131.790 E0.11143
G1 X87.607 Y129.986 E0.11143
G1 X86.426 Y128.121 E0.11143
G1 X85.338 Y126.200 E0.11143
G1 X84.345 Y124.228 E0.11143
G1 X83.451 Y122.210 E0.11143
G1 X82.656 Y120.151 E0.11143
G1 X81.964 Y118.055 E0.11143
G1 X81.375 Y115.928 E0.11143
G1 X80.891 Y113.774 E0.11143
G1 X80.514 Y111.599 E0.11143
G1 X80.244 Y109.408 E0.11143
G1 X80.081 Y107.207 E0.11143
G1 X80.027 Y105.000 E0.11143
G1 X80.081 Y102.793 E0.11143
G1 X80.244 Y100.592 E0.11143
G1 X80.514 Y98.401 E0.11143
G1 X80.891 Y96.226 E0.11143
G1 X81.375 Y94.073 E0.11143
G1 X81.964 Y91.945 E0.11143
G1 X82.656 Y89.849 E0.11143
G1 X83.451 Y87.790 E0.11143
G1 X84.345 Y85.772 E0.11143
G1 X85.337 Y83.800 E0.11143
G1 X86.425 Y81.880 E0.11143
G1 X87.606 Y80.015 E0.11143
G1 X88.877 Y78.210 E0.11143
G1 X90.180 Y76.541 E0.10688
G1 F8640.000
G1 X91.677 Y74.798 E-0.53044
G1 X92.363 Y74.078 E-0.22956
G1 E-0.04000 F2100.00000
G1 Z0.800 F10800.000
G1 X94.209 Y79.731
G1 Z0.200
G1 E0.80000 F2100.00000
G1 F1200.000
G1 X95.486 Y78.250 E0.09869
G1 X96.834 Y76.834 E0.09869
G1 X98.250 Y75.486 E0.09869
G1 X99.731 Y74.209 E0.09869
G1 X101.272 Y73.006 E0.09869
G1 X102.870 Y71.881 E0.09869
G1 X104.522 Y70.835 E0.09869
G1 X106.223 Y69.871 E0.09869
G1 X107.969 Y68.992 E0.09869
G1 X109.757 Y68.200 E0.09869
G1 X111.581 Y67.496 E0.09869
G1 X113.437 Y66.883 E0.09869
G1 X115.322 Y66.361 E0.09869
G1 X117.229 Y65.933 E0.09869
G1 X119.155 Y65.599 E0.09869
G1 X121.096 Y65.359 E0.09869
G1 X123.046 Y65.216 E0.09869
G1 X124.759 Y65.173 E0.08655
G1 X126.952 Y65.215 E0.11069
G1 X128.904 Y65.359 E0.09882
G1 X130.845 Y65.599 E0.09869
G1 X132.771 Y65.933 E0.09869
G1 X134.678 Y66.361 E0.09869
G1 X136.563 Y66.883 E0.09869
G1 X138.419 Y67.496 E0.09869
G1 X140.243 Y68.200 E0.09869
G1 X142.031 Y68.992 E0.09869
G1 X143.777 Y69.871 E0.09869
G1 X145.478 Y70.835 E0.09869
G1 X147.130 Y71.881 E0.09869
G1 X148.728 Y73.006 E0.09869
G1 X150.269 Y74.209 E0.09869
G1 X151.750 Y75.486 E0.09869
G1 X153.166 Y76.834 E0.09869
G1 X154.514 Y78.250 E0.09869
G1 X155.791 Y79.731 E0.09869
G1 X156.994 Y81.272 E0.09869
G1 X158.119 Y82.870 E0.09869
G1 X159.165 Y84.522 E0.09869
G1 X160.129 Y86.223 E0.09869
G1 X161.008 Y87.969 E0.09869
G1 X161.800 Y89.757 E0.09869
G1 X162.504 Y91.581 E0.09869
G1 X163.117 Y93.437 E0.09869
G1 X163.639 Y95.322 E0.09869
G1 X164.067 Y97.229 E0.09869
G1 X164.401 Y99.155 E0.09869
G1 X164.641 Y101.096 E0.09869
G1 X164.784 Y103.046 E0.09869
G1 X164.832 Y105.000 E0.09869
G1 X164.784 Y106.954 E0.09869
G1 X164.641 Y108.904 E0.09869
G1 X164.401 Y110.845 E0.09869
G1 X164.067 Y112.771 E0.09869
G1 X163.639 Y114.678 E0.09869
G1 X163.117 Y116.563 E0.09869
G1 X162.504 Y118.419 E0.09869
G1 X161.800 Y120.243 E0.09869
G1 X161.008 Y122.031 E0.09869
G1 X160.129 Y123.777 E0.09869
G1 X159.165 Y125.478 E0.09869
G1 X158.119 Y127.130 E0.09869
G1 X156.994 Y128.728 E0.09869
G1 X155.791 Y130.269 E0.09869
G1 X154.514 Y131.750 E0.09869
G1 X153.166 Y133.166 E0.09869
G1 X151.750 Y134.514 E0.09869
G1 X150.269 Y135.791 E0.09869
G1 X148.728 Y136.994 E0.09869
G1 X147.130 Y138.119 E0.09869
G1 X145.478 Y139.165 E0.09869
G1 X143.777 Y140.129 E0.09869
G1 X142.031 Y141.008 E0.09869
G1 X140.243 Y141.800 E0.09869
G1 X138.419 Y142.504 E0.09869
G1 X136.563 Y143.117 E0.09869
G1 X134.678 Y143.639 E0.09869
G1 X132.771 Y144.067 E0.09869
G1 X130.845 Y144.401 E0.09869
G1 X128.904 Y144.641 E0.09869
G1 X126.954 Y144.784 E0.09869
G1 X125.000 Y144.832 E0.09869
G1 X123.046 Y144.784 E0.09869
G1 X121.096 Y144.641 E0.09869
G1 X119.155 Y144.401 E0.09869
G1 X117.229 Y144.067 E0.09869
G1 X115.322 Y143.639 E0.09869
G1 X113.437 Y143.117 E0.09869
G1 X111.581 Y142.504 E0.09869
G1 X109.757 Y141.800 E0.09869
G1 X107.969 Y141.008 E0.09869
G1 X106.223 Y140.129 E0.09869
G1 X104.522 Y139.165 E0.09869
G1 X102.870 Y138.119 E0.09869
G1 X101.272 Y136.994 E0.09869
G1 X99.731 Y135.791 E0.09869
G1 X98.250 Y134.514 E0.09869
G1 X96.834 Y133.166 E0.09869
G1 X95.486 Y131.750 E0.09869
G1 X94.209 Y130.269 E0.09869
G1 X93.006 Y128.728 E0.09869
G1 X91.881 Y127.130 E0.09869
G1 X90.835 Y125.478 E0.09869
G1 X89.871 Y123.777 E0.09869
G1 X88.992 Y122.031 E0.09869
G1 X88.200 Y120.243 E0.09869
G1 X87.496 Y118.419 E0.09869
G1 X86.883 Y116.563 E0.09869
G1 X86.361 Y114.678 E0.09869
G1 X85.933 Y112.771 E0.09869
G1 X85.599 Y110.845 E0.09869
G1 X85.359 Y108.904 E0.09869
G1 X85.216 Y106.954 E0.09869
G1 X85.168 Y105.000 E0.09869
G1 X85.216 Y103.046 E0.09869
G1 X85.359 Y101.096 E0.09869
G1 X85.599 Y99.155 E0.09869
G1 X85.933 Y97.229 E0.09869
G1 X86.361 Y95.322 E0.09869
G1 X86.883 Y93.437 E0.09869
G1 X87.496 Y91.581 E0.09869
G1 X88.200 Y89.757 E0.09869
G1 X88.992 Y87.969 E0.09869
G1 X89.871 Y86.223 E0.09869
G1 X90.835 Y84.522 E0.09869
G1 X91.881 Y82.870 E0.09869
G1 X93.006 Y81.272 E0.09869
G1 X94.154 Y79.802 E0.09415
G1 X94.632 Y80.175 F10800.000
G1 F1200.000
G1 X95.936 Y78.658 E0.10097
G1 X97.264 Y77.264 E0.09719
G1 X98.658 Y75.936 E0.09719
G1 X100.116 Y74.679 E0.09719
G1 X101.634 Y73.494 E0.09719
G1 X103.208 Y72.385 E0.09719
G1 X104.834 Y71.355 E0.09719
G1 X106.509 Y70.407 E0.09719
G1 X108.229 Y69.541 E0.09719
G1 X109.989 Y68.761 E0.09719
G1 X111.785 Y68.068 E0.09719
G1 X113.614 Y67.464 E0.09719
G1 X115.469 Y66.950 E0.09719
G1 X117.348 Y66.529 E0.09719
G1 X119.244 Y66.199 E0.09719
G1 X121.155 Y65.964 E0.09719
G1 X123.075 Y65.822 E0.09719
G1 X124.761 Y65.781 E0.08512
G1 X126.924 Y65.822 E0.10919
G1 X128.845 Y65.964 E0.09723
G1 X130.756 Y66.199 E0.09719
G1 X132.652 Y66.529 E0.09719
G1 X134.531 Y66.950 E0.09719
G1 X136.386 Y67.464 E0.09719
G1 X138.215 Y68.068 E0.09719
G1 X140.011 Y68.761 E0.09719
G1 X141.771 Y69.541 E0.09719
G1 X143.491 Y70.407 E0.09719
G1 X145.166 Y71.355 E0.09719
G1 X146.792 Y72.385 E0.09719
G1 X148.366 Y73.494 E0.09719
G1 X149.884 Y74.679 E0.09719
G1 X151.342 Y75.936 E0.09719
G1 X152.736 Y77.264 E0.09719
G1 X154.064 Y78.658 E0.09719
G1 X155.321 Y80.116 E0.09719
G1 X156.506 Y81.634 E0.09719
G1 X157.615 Y83.208 E0.09719
G1 X158.645 Y84.834 E0.09719
G1 X159.593 Y86.509 E0.09719
G1 X160.459 Y88.229 E0.09719
G1 X161.239 Y89.989 E0.09719
G1 X161.932 Y91.785 E0.09719
G1 X162.536 Y93.614 E0.09719
G1 X163.050 Y95.469 E0.09719
G1 X163.471 Y97.348 E0.09719
G1 X163.801 Y99.244 E0.09719
G1 X164.036 Y101.155 E0.09719
G1 X164.178 Y103.075 E0.09719
G1 X164.225 Y105.000 E0.09719
G1 X164.178 Y106.925 E0.09719
G1 X164.036 Y108.845 E0.09719
G1 X163.801 Y110.756 E0.09719
G1 X163.471 Y112.652 E0.09719
G1 X163.050 Y114.531 E0.09719
G1 X162.536 Y116.386 E0.09719
G1 X161.932 Y118.215 E0.09719
G1 X161.239 Y120.011 E0.09719
G1 X160.459 Y121.771 E0.09719
G1 X159.593 Y123.491 E0.09719
G1 X158.645 Y125.166 E0.09719
G1 X157.615 Y126.792 E0.09719
G1 X156.506 Y128.366 E0.09719
G1 X155.321 Y129.884 E0.09719
G1 X154.064 Y131.342 E0.09719
G1 X152.736 Y132.736 E0.09719
G1 X151.342 Y134.064 E0.09719
G1 X149.884 Y135.321 E0.09719
G1 X148.366 Y136.506 E0.09719
G1 X146.792 Y137.615 E0.09719
G1 X145.166 Y138.645 E0.09719
G1 X143.491 Y139.593 E0.09719
G1 X141.771 Y140.459 E0.09719
G1 X140.011 Y141.239 E0.09719
G1 X138.215 Y141.932 E0.09719
G1 X136.386 Y142.536 E0.09719
G1 X134.531 Y143.050 E0.09719
G1 X132.652 Y143.471 E0.09719
G1 X130.756 Y143.801 E0.09719
G1 X128.845 Y144.036 E0.09719
G1 X126.925 Y144.178 E0.09719
G1 X125.000 Y144.225 E0.09719
G1 X123.075 Y144.178 E0.09719
G1 X121.155 Y144.036 E0.09719
G1 X119.244 Y143.801 E0.09719
G1 X117.348 Y143.471 E0.09719
G1 X115.469 Y143.050 E0.09719
G1 X113.614 Y142.536 E0.09719
G1 X111.785 Y141.932 E0.09719
G1 X109.989 Y141.239 E0.09719
G1 X108.229 Y140.459 E0.09719
G1 X106.509 Y139.593 E0.09719
G1 X104.834 Y138.645 E0.09719
G1 X103.208 Y137.615 E0.09719
G1 X101.634 Y136.506 E0.09719
G1 X100.116 Y135.321 E0.09719
G1 X98.658 Y134.064 E0.09719
G1 X97.264 Y132.736 E0.09719
G1 X95.936 Y131.342 E0.09719
G1 X94.679 Y129.884 E0.09719
G1 X93.494 Y128.366 E0.09719
G1 X92.385 Y126.792 E0.09719
G1 X91.355 Y125.166 E0.09719
G1 X90.407 Y123.491 E0.09719
G1 X89.541 Y121.771 E0.09719
G1 X88.761 Y120.011 E0.09719
G1 X88.068 Y118.215 E0.09719
G1 X87.464 Y116.386 E0.09719
G1 X86.950 Y114.531 E0.09719
G1 X86.529 Y112.652 E0.09719
G1 X86.199 Y110.756 E0.09719
G1 X85.964 Y108.845 E0.09719
G1 X85.822 Y106.925 E0.09719
G1 X85.775 Y105.000 E0.09719
G1 X85.822 Y103.075 E0.09719
G1 X85.964 Y101.155 E0.09719
G1 X86.199 Y99.244 E0.09719
G1 X86.529 Y97.348 E0.09719
G1 X86.950 Y95.469 E0.09719
G1 X87.464 Y93.614 E0.09719
G1 X88.068 Y91.785 E0.09719
G1 X88.761 Y89.989 E0.09719
G1 X89.541 Y88.229 E0.09719
G1 X90.407 Y86.509 E0.09719
G1 X91.355 Y84.834 E0.09719
G1 X92.385 Y83.208 E0.09719
G1 X93.494 Y81.634 E0.09719
G1 X94.577 Y80.246 E0.08885
G1 X94.420 Y79.614 F10800.000
G1 F8640.000
G1 X95.936 Y78.658 E-0.48263
G1 X96.764 Y77.788 E-0.27737
G1 E-0.04000 F2100.00000
G1 Z0.800 F10800.000
G1 X93.092 Y79.087
G1 Z0.200
G1 E0.80000 F2100.00000
G1 F1200.000
G1 X94.540 Y77.393 E0.11251
G1 X95.932 Y75.932 E0.10185
G1 X97.393 Y74.540 E0.10185
G1 X98.921 Y73.222 E0.10185
G1 X100.511 Y71.981 E0.10185
G1 X102.161 Y70.819 E0.10185
G1 X103.866 Y69.740 E0.10185
G1 X105.621 Y68.745 E0.10185
G1 X107.424 Y67.838 E0.10185
G1 X109.268 Y67.020 E0.10185
G1 X111.151 Y66.294 E0.10185
G1 X113.067 Y65.661 E0.10185
G1 X115.011 Y65.123 E0.10185
G1 X116.980 Y64.681 E0.10185
G1 X118.968 Y64.336 E0.10185
G1 X120.971 Y64.089 E0.10185
G1 X122.983 Y63.941 E0.10185
G1 X125.000 Y63.891 E0.10185
G1 X127.017 Y63.941 E0.10185
G1 X129.029 Y64.089 E0.10185
G1 X131.032 Y64.336 E0.10185
G1 X133.020 Y64.681 E0.10185
G1 X134.989 Y65.123 E0.10185
G1 X136.933 Y65.661 E0.10185
G1 X138.849 Y66.294 E0.10185
G1 X140.732 Y67.020 E0.10185
G1 X142.576 Y67.838 E0.10185
G1 X144.379 Y68.745 E0.10185
G1 X146.134 Y69.740 E0.10185
G1 X147.839 Y70.819 E0.10185
G1 X149.489 Y71.981 E0.10185
G1 X151.079 Y73.222 E0.10185
G1 X152.607 Y74.540 E0.10185
G1 X154.068 Y75.932 E0.10185
G1 X155.460 Y77.393 E0.10185
G1 X156.778 Y78.921 E0.10185
G1 X158.019 Y80.511 E0.10185
G1 X159.181 Y82.161 E0.10185
G1 X160.260 Y83.866 E0.10185
G1 X161.255 Y85.621 E0.10185
G1 X162.162 Y87.424 E0.10185
G1 X162.980 Y89.268 E0.10185
G1 X163.706 Y91.151 E0.10185
G1 X164.339 Y93.067 E0.10185
G1 X164.877 Y95.011 E0.10185
G1 X165.319 Y96.980 E0.10185
G1 X165.664 Y98.968 E0.10185
G1 X165.911 Y100.971 E0.10185
G1 X166.059 Y102.983 E0.10185
G1 X166.109 Y105.000 E0.10185
G1 X166.059 Y107.017 E0.10185
G1 X165.911 Y109.029 E0.10185
G1 X165.664 Y111.032 E0.10185
G1 X165.319 Y113.020 E0.10185
G1 X164.877 Y114.989 E0.10185
G1 X164.339 Y116.933 E0.10185
G1 X163.706 Y118.849 E0.10185
G1 X162.980 Y120.732 E0.10185
G1 X162.162 Y122.576 E0.10185
G1 X161.255 Y124.379 E0.10185
G1 X160.260 Y126.134 E0.10185
G1 X159.181 Y127.839 E0.10185
G1 X158.019 Y129.489 E0.10185
G1 X156.778 Y131.079 E0.10185
G1 X155.460 Y132.607 E0.10185
G1 X154.068 Y134.068 E0.10185
G1 X152.607 Y135.460 E0.10185
G1 X151.079 Y136.778 E0.10185
G1 X149.489 Y138.019 E0.10185
G1 X147.839 Y139.181 E0.10185
G1 X146.134 Y140.260 E0.10185
G1 X144.379 Y141.255 E0.10185
G1 X142.576 Y142.162 E0.10185
G1 X140.732 Y142.980 E0.10185
G1 X138.849 Y143.706 E0.10185
G1 X136.933 Y144.339 E0.10185
G1 X134.989 Y144.877 E0.10185
G1 X133.020 Y145.319 E0.10185
G1 X131.032 Y145.664 E0.10185
G1 X129.029 Y145.911 E0.10185
G1 X127.017 Y146.059 E0.10185
G1 X125.000 Y146.109 E0.10185
G1 X122.983 Y146.059 E0.10185
G1 X120.971 Y145.911 E0.10185
G1 X118.968 Y145.664 E0.10185
G1 X116.980 Y145.319 E0.10185
G1 X115.011 Y144.877 E0.10185
G1 X113.067 Y144.339 E0.10185
G1 X111.151 Y143.706 E0.10185
G1 X109.268 Y142.980 E0.10185
G1 X107.424 Y142.162 E0.10185
G1 X105.621 Y141.255 E0.10185
G1 X103.866 Y140.260 E0.10185
